svgs/sharp-solid/smog.svg

<svg xmlns="http://www.w3.org/2000/svg" viewBox="0 0 640 512"><!--! Font Awesome Pro 6.6.0 by @fontawesome - https://fontawesome.com License - https://fontawesome.com/license (Commercial License) Copyright 2024 Fonticons, Inc. --><path d="M192 287.1c-5.3 .6-10.6 .9-16 .9L32 288l0-144C32 64.5 96.5 0 176 0c34.5 0 66.1 12.1 90.9 32.3C289.6 12.2 319.4 0 352 0c49.1 0 91.8 27.7 113.2 68.3C475 65.5 485.3 64 496 64c61.9 0 112 50.1 112 112l0 112-112 0-27.3 0c-22.6 19.9-52.2 32-84.7 32s-62.1-12.1-84.7-32L192 288l0-.9zM616 368l24 0 0 48-24 0-336 0-24 0 0-48 24 0 336 0zm-64 96l24 0 0 48-24 0-112 0-24 0 0-48 24 0 112 0zm-192 0l24 0 0 48-24 0L24 512 0 512l0-48 24 0 336 0zM224 368l0 48-24 0L96 416l-24 0 0-48 24 0 104 0 24 0z"/></svg>

<svg xmlns="http://www.w3.org/2000/svg" viewBox="0 0 640 512"><!--! Font Awesome Pro 6.4.0 by @fontawesome - https://fontawesome.com License - https://fontawesome.com/license (Commercial License) Copyright 2023 Fonticons, Inc. --><path d="M192 287.1c-5.3 .6-10.6 .9-16 .9H32V144C32 64.5 96.5 0 176 0c34.5 0 66.1 12.1 90.9 32.3C289.6 12.2 319.4 0 352 0c49.1 0 91.8 27.7 113.2 68.3C475 65.5 485.3 64 496 64c61.9 0 112 50.1 112 112V288H496 468.7c-22.6 19.9-52.2 32-84.7 32s-62.1-12.1-84.7-32H192v-.9zM616 368h24v48H616 280 256V368h24H616zm-64 96h24v48H552 440 416V464h24H552zm-192 0h24v48H360 24 0V464H24 360zM224 368v48H200 96 72V368H96 200h24z"/></svg>
